X:33
T:Up Mill Steps (2)
T:O'Connor's Quickstep
M:4/4
L:1/8
N:Linda decided Jack Robinson wasn't exciting
N:enough for her for the whole dance
C:W. Krug  Arr BM
Z:BM
K:G
"O'Connor's Quickstep   Change to this after 'Swings'"
dc|B2dB GBdB|c2ec egfe|d2g2 g2fg|a2A2 AcBA|
B2dB GBdB|c2ec egfe|d2B2 AcBA|G2G2G2z2|]
G2B2 d^cd2|eg2e dBG2|GABc d2d2|BG2B A4|
G2B2 d^cd2|eg2e dBG2|B2dB AcBA|G2G2G2||
